src/24/actions/format-text-direction-vertical.svg

<svg xmlns="http://www.w3.org/2000/svg" viewBox="0 0 24 24">
  <defs id="defs3051">
    <style type="text/css" id="current-color-scheme">
      .ColorScheme-Text {
        color:#5d656b;
      }
      </style>
  </defs>
 <path style="fill:currentColor;fill-opacity:1;stroke:none" 
     d="M 7.9433594 4 L 4 10.828125 L 4 11 L 5.0566406 11 L 6.2109375 9 L 10.789062 9 L 11.943359 11 L 13 11 L 13 10.828125 L 9.0566406 4 L 9 4 L 7.9433594 4 z M 16 4 L 16 17 L 17 17 L 17 4 L 16 4 z M 19 4 L 19 17 L 20 17 L 20 4 L 19 4 z M 8.5 5.0371094 L 10.210938 8 L 6.7890625 8 L 8.5 5.0371094 z M 4 12 L 4 17 L 5 17 L 5 12 L 4 12 z M 7 12 L 7 17 L 8 17 L 8 12 L 7 12 z M 10 12 L 10 17 L 11 17 L 11 12 L 10 12 z M 13 12 L 13 17 L 14 17 L 14 12 L 13 12 z M 4 18 L 6 20 L 8 18 L 4 18 z M 10 18 L 12 20 L 14 18 L 10 18 z M 16 18 L 18 20 L 20 18 L 16 18 z "
     class="ColorScheme-Text"
     />
</svg>

<svg xmlns="http://www.w3.org/2000/svg" viewBox="0 0 24 24"><path d="M7.943 4L4 10.828V11h1.057L6.21 9h4.578l1.154 2H13v-.172L9.057 4H7.943zM16 4v13h1V4h-1zm3 0v13h1V4h-1zM8.5 5.037L10.21 8H6.79L8.5 5.037zM4 12v5h1v-5H4zm3 0v5h1v-5H7zm3 0v5h1v-5h-1zm3 0v5h1v-5h-1zm-9 6l2 2 2-2H4zm6 0l2 2 2-2h-4zm6 0l2 2 2-2h-4z" fill="currentColor" color="#5d656b"/></svg>
